svgs/sharp-solid/book-bible.svg

<svg xmlns="http://www.w3.org/2000/svg" viewBox="0 0 448 512"><!--! Font Awesome Pro 6.6.0 by @fontawesome - https://fontawesome.com License - https://fontawesome.com/license (Commercial License) Copyright 2024 Fonticons, Inc. --><path d="M96 0C43 0 0 43 0 96L0 416c0 53 43 96 96 96l288 0 32 0 32 0 0-64-32 0 0-64 32 0L448 0 416 0 384 0 96 0zm0 384l256 0 0 64L96 448c-17.7 0-32-14.3-32-32s14.3-32 32-32zM208 64l64 0 0 64 64 0 0 64-64 0 0 128-64 0 0-128-64 0 0-64 64 0 0-64z"/></svg>

<svg xmlns="http://www.w3.org/2000/svg" viewBox="0 0 448 512"><!--! Font Awesome Pro 6.4.2 by @fontawesome - https://fontawesome.com License - https://fontawesome.com/license (Commercial License) Copyright 2023 Fonticons, Inc. --><path d="M96 0C43 0 0 43 0 96V416c0 53 43 96 96 96H384h32 32V448H416V384h32V0H416 384 96zm0 384H352v64H96c-17.7 0-32-14.3-32-32s14.3-32 32-32zM208 64h64v64h64v64H272V320H208V192H144V128h64V64z"/></svg>
